logo.svg

<svg width="87" height="77" viewBox="0 0 87 77" fill="none" xmlns="http://www.w3.org/2000/svg">
<g clip-path="url(#clip0_54_415)">
<path d="M16.09 41L0 42.11C0.62608 47.2118 2.13526 52.1657 4.46 56.75L18.46 48.66C17.3041 46.2346 16.5058 43.6544 16.09 41Z" fill="#222222"/>
<path d="M51.1699 60.64L54.1699 76.51C59.6579 75.1272 64.8019 72.6276 69.2806 69.1676C73.7592 65.7075 77.4764 61.3612 80.1999 56.4L65.5999 49.51C62.3556 54.8981 57.2053 58.8706 51.1699 60.64Z" fill="#222222"/>
<path d="M86.1 21.7599C84.6295 17.5956 82.543 13.6754 79.91 10.1299L55 30.8599L86.1 21.7599Z" fill="#222222"/>
<path d="M45.4298 57.11C44.9998 57.11 44.5798 57.17 44.1498 57.17C40.9761 57.1696 37.8461 56.4313 35.0068 55.0134C32.1675 53.5955 29.6968 51.5368 27.7898 49L20.9298 53L13.7798 57.15C17.1351 62.1182 21.6593 66.1864 26.9547 68.9971C32.25 71.8078 38.1547 73.2751 44.1498 73.27C45.5671 73.261 46.9828 73.1709 48.3898 73L46.2598 61.55L45.4298 57.11Z" fill="#222222"/>
<path d="M64.3999 33.3201C64.583 34.4141 64.6799 35.5209 64.6899 36.6301C64.703 38.8131 64.3653 40.9841 63.6899 43.0601L67.7299 45.0001L78.2699 50.0001C80.9017 43.2587 81.4793 35.8892 79.9299 28.8201L64.3999 33.3201Z" fill="#222222"/>
<path d="M44.1502 1.52172e-05C38.4537 -0.00427698 32.835 1.32152 27.7413 3.87184C22.6476 6.42216 18.2197 10.1265 14.8102 14.69L23.0002 23.48L11.4702 20.09C8.8517 25.1966 7.48089 30.8512 7.47021 36.59L15.7602 36L23.6702 35.46C23.8831 31.5567 25.208 27.7958 27.4887 24.621C29.7694 21.4462 32.9107 18.9901 36.5419 17.5424C40.173 16.0948 44.1425 15.7161 47.9819 16.451C51.8213 17.1859 55.3703 19.0038 58.2102 21.69L70.6402 11.35C67.2259 7.75975 63.1166 4.90198 58.5625 2.9507C54.0084 0.999432 49.1047 -0.00450809 44.1502 1.52172e-05Z" fill="#222222"/>
<path d="M15.7799 19L7.63992 10.2L5.77992 8.19995C4.22633 10.2907 2.85148 12.5086 1.66992 14.83L4.28992 15.6L15.7799 19Z" fill="#222222"/>
</g>
<defs>
<clipPath id="clip0_54_415">
<rect width="86.1" height="76.51" fill="white"/>
</clipPath>
</defs>
</svg>

<svg xmlns="http://www.w3.org/2000/svg" viewBox="0 0 86.1 76.51"><defs><style>.cls-1{fill:#41342e;}</style></defs><title>Asset 4</title><g id="Layer_2" data-name="Layer 2"><g id="Layer_1-2" data-name="Layer 1"><path class="cls-1" d="M16.09,41,0,42.11A44.3,44.3,0,0,0,4.46,56.75l14-8.09A27.81,27.81,0,0,1,16.09,41Z"/><path class="cls-1" d="M51.17,60.64l3,15.87A41.17,41.17,0,0,0,80.2,56.4L65.6,49.51A25.08,25.08,0,0,1,51.17,60.64Z"/><path class="cls-1" d="M86.1,21.76a44.18,44.18,0,0,0-6.19-11.63L55,30.86Z"/><path class="cls-1" d="M45.43,57.11c-.43,0-.85.06-1.28.06A20.47,20.47,0,0,1,27.79,49l-6.86,4-7.15,4.15A36.61,36.61,0,0,0,44.15,73.27,37.13,37.13,0,0,0,48.39,73L46.26,61.55Z"/><path class="cls-1" d="M64.4,33.32a21.22,21.22,0,0,1,.29,3.31,20.39,20.39,0,0,1-1,6.43L67.73,45l10.54,5a36.66,36.66,0,0,0,1.66-21.18Z"/><path class="cls-1" d="M44.15,0A36.59,36.59,0,0,0,14.81,14.69L23,23.48,11.47,20.09a36.31,36.31,0,0,0-4,16.5L15.76,36l7.91-.54A20.49,20.49,0,0,1,58.21,21.69L70.64,11.35A36.51,36.51,0,0,0,44.15,0Z"/><path class="cls-1" d="M15.78,19l-8.14-8.8-1.86-2a46.42,46.42,0,0,0-4.11,6.63l2.62.77Z"/></g></g></svg>
